X: 6
T: I Have a Bonnet Trimmed With Blue
M: 2/4
L: 1/8
R: polka
K: A Major
|: AB/c/ df | eA cA | e2 dB | BA cdcB |
A2 de/f/ | eA c2 | ef/e/ dc/B/ | BA A2 :|
|: ef/g/ a>f | eA cA | e2 dB | BA cdcB |
e2 ag/f/ | eA c2 | ef/e/ dc/B/ | BA A2 :|
